X: 1
T:Hornpipe by Tench,A. JMT009
M:C
L:1/8
Q:180
C:by Tench
S:John Moore,Tyneside,1841. (05)
R:Hornpipe
O:England
A:Northumbria
H:1841
Z:John Adams
K:D
AG | (FG)EF DFAd | (cd)(Bc) Aceg | (fg)(ef) (de)(cd) | (Bc)(AB) GBAG |!
(FA)(EF) DFAc | (cd)(Bc) Aceg | (fa)ge fdec | d2d2d2 :|!
de | (fed).f (edc).e | (dcB).d (cBA).c | (BAG).B (AGF).A | GEFD ECCG |!
(FG)(EF) DFAc | (cd)(Bc) Aceg | fage fdec | d2d2d2 :|
